; HEADER_BLOCK_START
; generated by AnycubicSlicerNext 1.1.1 on 2026-03-03 at 02:43:26
; total layer number: 210
; filament_density: 1.24
; filament_diameter: 1.75
; max_z_height: 42.04
; HEADER_BLOCK_END

; THUMBNAIL_BLOCK_START

;
; THUMBNAIL_BLOCK_END

; external perimeters extrusion width = 0.42mm
; perimeters extrusion width = 0.45mm
; infill extrusion width = 0.45mm
; solid infill extrusion width = 0.42mm
; top infill extrusion width = 0.42mm
; first layer extrusion width = 0.50mm

; EXECUTABLE_BLOCK_START
M201 X2000 Y2000 Z800 E2000
M203 X300 Y300 Z8 E100
M204 P2000 R2000 T2000
M205 X10.00 Y10.00 Z2.00 E5.00 ; sets the jerk limits, mm/sec
;TYPE:Custom
G90 ; use absolute coordinates
M83 ; extruder relative mode
M104 S220 ; set extruder temp
M140 S60 ; set bed temp
M190 S60 ; wait for bed temp
M109 S220 ; wait for extruder temp
G28                                        ; move X/Y/Z to min endstops
G1 Z0.28                                   ; lift nozzle a bit 
G92 E0 
G1 Y3 F1800                                    ; zero the extruded length 
G1 X60  E25 F500                       ; Extrude 25mm of filament in a 5cm line. 
G92 E0                                     ; zero the extruded length again 
G1 E-2 F500                                ; Retract a little 
G1 X70 F4000                              ; Quickly wipe away from the filament line
M117
G90
G21
M82 ; use absolute distances for extrusion
G92 E0
; filament start gcode
M106 S0
;LAYER_CHANGE
;Z:0.24
;HEIGHT:0.24
; BEFORE_LAYER_CHANGE 0 @ 0.24mm
G1 E-2.5 F6000
G92 E0
; AFTER_LAYER_CHANGE 0 @ 0.24mm
;_SET_FAN_SPEED_CHANGING_LAYER
M204 S500
; printing object case assembly-Body001.stl id:4352356104583806976 copy 0
G1 X64.946 Y64.834 F18000
G1 Z.24
G1 E2.5 F6000
;TYPE:Brim
;WIDTH:0.5
G1 F3000
G1 X65.116 Y64.664 E2.51042
G1 X65.625 Y64.287 E2.53792
G1 X66.344 Y63.924 E2.57287
G1 X67.051 Y63.697 E2.60511
G1 X67.683 Y63.601 E2.63284
G1 X68.004 Y63.589 E2.64681
G1 X151.992 Y63.589 E6.29258
G1 X152.634 Y63.637 E6.32054
G1 X153.256 Y63.779 E6.34822
G1 X153.702 Y63.944 E6.36888
G1 X154.376 Y64.29 E6.40176
G1 X154.886 Y64.667 E6.42929
G1 X155.336 Y65.116 E6.45689
G1 X155.712 Y65.624 E6.48433
G1 X156.115 Y66.443 E6.52397
G1 X156.303 Y67.05 E6.55152
G1 X156.399 Y67.683 E6.5793
G1 X156.411 Y68.004 E6.59327
G1 X156.411 Y151.992 E10.23904
G1 X156.363 Y152.634 E10.267
G1 X156.221 Y153.256 E10.29468
G1 X156.056 Y153.702 E10.31534
G1 X155.71 Y154.376 E10.34822
G1 X155.333 Y154.886 E10.37575
G1 X154.884 Y155.336 E10.40335
G1 X154.375 Y155.713 E10.43085
G1 X153.656 Y156.076 E10.46579
G1 X152.949 Y156.303 E10.49804
G1 X152.317 Y156.399 E10.52576
G1 X151.996 Y156.411 E10.53974
G1 X68.008 Y156.411 E14.18551
G1 X67.366 Y156.363 E14.21347
G1 X66.744 Y156.221 E14.24115
G1 X66.298 Y156.056 E14.26181
G1 X65.624 Y155.71 E14.29468
G1 X65.114 Y155.333 E14.32222
G1 X64.664 Y154.884 E14.34981
G1 X64.287 Y154.375 E14.37731
G1 X63.924 Y153.656 E14.41226
G1 X63.697 Y152.949 E14.44451
G1 X63.601 Y152.317 E14.47223
G1 X63.589 Y151.996 E14.48621
G1 X63.589 Y68.008 E18.13197
G1 X63.637 Y67.366 E18.15993
G1 X63.779 Y66.744 E18.18762
G1 X63.944 Y66.298 E18.20827
G1 X64.29 Y65.624 E18.24115
G1 X64.667 Y65.114 E18.26869
G1 X64.918 Y64.862 E18.28412
G1 X65.235 Y65.179 F18000
G1 F3000
G1 X65.403 Y65.012 E18.29439
G1 X65.852 Y64.677 E18.31872
G1 X66.505 Y64.345 E18.35051
G1 X67.164 Y64.133 E18.38057
G1 X67.717 Y64.05 E18.40484
G1 X68.015 Y64.038 E18.41779
G1 X151.98 Y64.038 E22.06257
G1 X152.577 Y64.084 E22.08856
G1 X153.119 Y64.208 E22.11269
G1 X153.513 Y64.353 E22.13094
G1 X154.129 Y64.668 E22.16096
G1 X154.6 Y65.015 E22.18637
G1 X154.988 Y65.403 E22.21017
G1 X155.32 Y65.849 E22.23432
G1 X155.693 Y66.6 E22.27072
G1 X155.866 Y67.16 E22.29616
G1 X155.95 Y67.717 E22.32062
G1 X155.962 Y68.01 E22.33335
G1 X155.962 Y151.97 E25.97791
G1 X155.916 Y152.577 E26.00434
G1 X155.792 Y153.119 E26.02847
G1 X155.647 Y153.513 E26.04671
G1 X155.332 Y154.129 E26.07673
G1 X154.985 Y154.6 E26.10214
G1 X154.597 Y154.988 E26.12595
G1 X154.148 Y155.323 E26.15029
G1 X153.495 Y155.655 E26.18207
G1 X152.836 Y155.867 E26.21213
G1 X152.283 Y155.95 E26.2364
G1 X151.985 Y155.962 E26.24935
G1 X68.03 Y155.962 E29.8937
G1 X67.423 Y155.916 E29.92012
G1 X66.881 Y155.792 E29.94425
G1 X66.487 Y155.647 E29.9625
G1 X65.871 Y155.332 E29.99252
G1 X65.4 Y154.985 E30.01793
G1 X65.012 Y154.597 E30.04174
G1 X64.677 Y154.148 E30.06607
G1 X64.345 Y153.495 E30.09785
G1 X64.133 Y152.836 E30.12792
G1 X64.05 Y152.283 E30.15219
G1 X64.038 Y151.985 E30.16514
G1 X64.038 Y68.03 E33.80948
G1 X64.084 Y67.423 E33.83591
G1 X64.208 Y66.881 E33.86004
G1 X64.353 Y66.487 E33.87828
G1 X64.668 Y65.871 E33.9083
G1 X65.015 Y65.4 E33.93371
G1 X65.207 Y65.207 E33.94552
G1 X65.524 Y65.525 F18000
G1 F3000
G1 X65.705 Y65.346 E33.95657
G1 X66.08 Y65.066 E33.97691
G1 X66.666 Y64.766 E34.00549
G1 X67.278 Y64.57 E34.03336
G1 X67.753 Y64.498 E34.05421
G1 X68.027 Y64.486 E34.06613
G1 X151.957 Y64.487 E37.70942
G1 X152.519 Y64.531 E37.73388
G1 X152.983 Y64.637 E37.75452
G1 X153.326 Y64.762 E37.77036
G1 X153.883 Y65.046 E37.7975
G1 X154.314 Y65.363 E37.82077
G1 X154.641 Y65.69 E37.84082
G1 X154.929 Y66.074 E37.86168
G1 X155.27 Y66.757 E37.89482
G1 X155.429 Y67.271 E37.91814
G1 X155.502 Y67.753 E37.93931
G1 X155.514 Y68.017 E37.95077
G1 X155.514 Y151.947 E41.59409
G1 X155.469 Y152.519 E41.61898
G1 X155.363 Y152.983 E41.63962
G1 X155.238 Y153.326 E41.65545
G1 X154.954 Y153.883 E41.6826
G1 X154.637 Y154.314 E41.70587
G1 X154.295 Y154.654 E41.72677
G1 X153.92 Y154.934 E41.74711
G1 X153.334 Y155.234 E41.77569
G1 X152.722 Y155.43 E41.80355
G1 X152.247 Y155.502 E41.82441
G1 X151.973 Y155.514 E41.83633
G1 X68.053 Y155.514 E45.47919
G1 X67.481 Y155.469 E45.50408
G1 X67.017 Y155.363 E45.52472
G1 X66.674 Y155.238 E45.54056
G1 X66.117 Y154.954 E45.5677
G1 X65.686 Y154.637 E45.59097
G1 X65.346 Y154.295 E45.61188
G1 X65.066 Y153.92 E45.63221
G1 X64.766 Y153.334 E45.66079
G1 X64.57 Y152.722 E45.68866
G1 X64.498 Y152.247 E45.70951
G1 X64.486 Y151.973 E45.72143
G1 X64.486 Y68.052 E49.3643
G1 X64.531 Y67.481 E49.38919
G1 X64.637 Y67.017 E49.40982
G1 X64.762 Y66.674 E49.42566
G1 X65.046 Y66.117 E49.4528
G1 X65.363 Y65.686 E49.47608
G1 X65.496 Y65.554 E49.48419
G1 X65.812 Y65.872 F18000
G1 F3000
G1 X65.991 Y65.693 E49.49516
G1 X66.309 Y65.455 E49.5124
G1 X66.828 Y65.187 E49.53777
G1 X67.391 Y65.006 E49.56341
G1 X67.789 Y64.946 E49.58088
G1 X68.04 Y64.935 E49.59177
G1 X151.934 Y64.935 E53.23352
G1 X152.461 Y64.978 E53.25645
G1 X152.847 Y65.066 E53.27367
G1 X153.139 Y65.171 E53.2871
G1 X153.636 Y65.424 E53.31134
G1 X154.029 Y65.712 E53.33246
G1 X154.307 Y65.992 E53.34962
G1 X154.539 Y66.301 E53.36638
G1 X154.848 Y66.915 E53.39622
G1 X154.992 Y67.381 E53.41739
G1 X155.054 Y67.789 E53.43531
G1 X155.065 Y68.023 E53.44549
G1 X155.065 Y151.925 E57.08752
G1 X155.022 Y152.461 E57.11088
G1 X154.934 Y152.847 E57.12808
G1 X154.829 Y153.139 E57.14151
G1 X154.576 Y153.636 E57.16575
G1 X154.288 Y154.028 E57.18685
G1 X154.009 Y154.307 E57.20399
G1 X153.691 Y154.545 E57.22124
G1 X153.172 Y154.813 E57.24661
G1 X152.609 Y154.994 E57.27225
G1 X152.211 Y155.054 E57.28971
G1 X151.96 Y155.065 E57.30061
G1 X68.075 Y155.065 E60.94194
G1 X67.539 Y155.022 E60.9653
G1 X67.153 Y154.934 E60.9825
G1 X66.861 Y154.829 E60.99593
G1 X66.364 Y154.576 E61.02017
G1 X65.972 Y154.288 E61.04128
G1 X65.693 Y154.009 E61.05842
G1 X65.455 Y153.691 E61.07566
G1 X65.187 Y153.172 E61.10103
G1 X65.006 Y152.609 E61.12667
G1 X64.946 Y152.211 E61.14414
G1 X64.935 Y151.961 E61.15503
G1 X64.935 Y68.075 E64.79636
G1 X64.978 Y67.539 E64.81972
G1 X65.066 Y67.153 E64.83693
G1 X65.171 Y66.861 E64.85036
G1 X65.424 Y66.364 E64.8746
G1 X65.712 Y65.972 E64.8957
G1 X65.784 Y65.9 E64.90013
G1 X66.1 Y66.218 F18000
G1 F3000
G1 X66.279 Y66.04 E64.91106
G1 X66.539 Y65.843 E64.92524
G1 X66.991 Y65.608 E64.94735
G1 X67.504 Y65.443 E64.97075
G1 X67.826 Y65.394 E64.98486
G1 X68.053 Y65.383 E64.99473
G1 X151.911 Y65.384 E68.63488
G1 X152.402 Y65.424 E68.65627
G1 X152.713 Y65.495 E68.67013
G1 X152.952 Y65.581 E68.68116
G1 X153.391 Y65.802 E68.70247
G1 X153.742 Y66.06 E68.72141
G1 X153.961 Y66.279 E68.73483
G1 X154.149 Y66.529 E68.74839
G1 X154.425 Y67.074 E68.77492
G1 X154.555 Y67.492 E68.79392
G1 X154.606 Y67.826 E68.80863
G1 X154.616 Y68.037 E68.81778
G1 X154.617 Y151.901 E72.4582
G1 X154.575 Y152.402 E72.48002
G1 X154.505 Y152.713 E72.49386
G1 X154.419 Y152.952 E72.50489
G1 X154.198 Y153.391 E72.5262
G1 X153.94 Y153.742 E72.54512
G1 X153.721 Y153.96 E72.55853
G1 X153.461 Y154.157 E72.57271
G1 X153.009 Y154.392 E72.59483
G1 X152.496 Y154.557 E72.61822
G1 X152.174 Y154.606 E72.63233
G1 X151.947 Y154.617 E72.6422
G1 X68.099 Y154.617 E76.28194
G1 X67.598 Y154.575 E76.30376
G1 X67.287 Y154.505 E76.3176
G1 X67.048 Y154.419 E76.32863
G1 X66.609 Y154.198 E76.34994
G1 X66.258 Y153.94 E76.36886
G1 X66.04 Y153.721 E76.38227
G1 X65.843 Y153.461 E76.39645
G1 X65.608 Y153.009 E76.41857
G1 X65.443 Y152.496 E76.44196
G1 X65.394 Y152.174 E76.45607
G1 X65.383 Y151.947 E76.46594
G1 X65.383 Y68.099 E80.10568
G1 X65.425 Y67.598 E80.12751
G1 X65.495 Y67.287 E80.14135
G1 X65.581 Y67.048 E80.15237
G1 X65.802 Y66.609 E80.17368
G1 X66.06 Y66.258 E80.1926
G1 X66.072 Y66.246 E80.19335
G1 X66.438 Y66.53 F18000
G1 F3000
G1 X66.449 Y66.517 E80.19408
G1 X66.767 Y66.244 E80.21229
G1 X67.167 Y66.021 E80.23216
G1 X67.466 Y65.924 E80.24579
G1 X68.045 Y65.832 E80.27125
G1 X151.964 Y65.832 E83.91407
G1 X152.396 Y65.885 E83.93297
G1 X152.797 Y66.01 E83.95119
G1 X153.275 Y66.278 E83.97497
G1 X153.561 Y66.526 E83.9914
G1 X153.811 Y66.847 E84.00906
G1 X153.979 Y67.166 E84.02469
G1 X154.076 Y67.466 E84.03838
G1 X154.168 Y68.045 E84.06385
G1 X154.168 Y151.964 E87.70666
G1 X154.115 Y152.396 E87.72556
G1 X153.99 Y152.797 E87.74378
G1 X153.722 Y153.275 E87.76756
G1 X153.474 Y153.561 E87.78399
G1 X153.153 Y153.811 E87.80165
G1 X152.834 Y153.979 E87.81728
G1 X152.534 Y154.076 E87.83097
G1 X151.955 Y154.168 E87.85644
G1 X68.036 Y154.168 E91.49925
G1 X67.604 Y154.115 E91.51815
G1 X67.203 Y153.99 E91.53637
G1 X66.725 Y153.722 E91.56015
G1 X66.439 Y153.474 E91.57658
G1 X66.189 Y153.153 E91.59424
G1 X66.021 Y152.834 E91.60987
G1 X65.924 Y152.534 E91.62356
G1 X65.832 Y151.955 E91.64903
G1 X65.832 Y68.036 E95.29184
G1 X65.885 Y67.604 E95.31074
G1 X66.011 Y67.202 E95.32902
G1 X66.216 Y66.817 E95.34797
G1 X66.414 Y66.562 E95.36197
G1 X66.759 Y66.845 F18000
G1 F3000
G1 X66.801 Y66.794 E95.36486
G1 X67.058 Y66.585 E95.37921
G1 X67.307 Y66.447 E95.39158
G1 X67.533 Y66.367 E95.40202
G1 X68.034 Y66.28 E95.42408
G1 X151.972 Y66.28 E99.06772
G1 X152.268 Y66.315 E99.08063
G1 X152.576 Y66.401 E99.09452
G1 X152.983 Y66.617 E99.11452
G1 X153.206 Y66.801 E99.12707
G1 X153.415 Y67.058 E99.14142
G1 X153.553 Y67.307 E99.1538
G1 X153.633 Y67.533 E99.16423
G1 X153.72 Y68.034 E99.1863
G1 X153.72 Y151.972 E102.82993
G1 X153.685 Y152.268 E102.84284
G1 X153.599 Y152.576 E102.85674
G1 X153.383 Y152.983 E102.87673
G1 X153.199 Y153.206 E102.88929
G1 X152.942 Y153.415 E102.90364
G1 X152.693 Y153.553 E102.91601
G1 X152.467 Y153.633 E102.92644
G1 X151.966 Y153.72 E102.94851
G1 X68.028 Y153.72 E106.59214
G1 X67.732 Y153.685 E106.60506
G1 X67.424 Y153.599 E106.61895
G1 X67.017 Y153.383 E106.63895
G1 X66.794 Y153.199 E106.6515
G1 X66.585 Y152.942 E106.66585
G1 X66.447 Y152.693 E106.67822
G1 X66.367 Y152.467 E106.68866
G1 X66.28 Y151.966 E106.71073
G1 X66.28 Y68.028 E110.35436
G1 X66.315 Y67.732 E110.36727
G1 X66.401 Y67.424 E110.38117
G1 X66.617 Y67.017 E110.40116
G1 X66.733 Y66.876 E110.40909
G1 X67.074 Y67.154 F18000
G1 F3000
G1 X67.085 Y67.141 E110.40982
G1 X67.277 Y66.977 E110.42078
G1 X67.466 Y66.866 E110.43029
G1 X67.61 Y66.809 E110.43703
G1 X68.023 Y66.729 E110.45527
G1 X151.98 Y66.729 E114.09975
G1 X152.217 Y66.76 E114.11012
G1 X152.457 Y66.833 E114.121
G1 X152.769 Y67.011 E114.13658
G1 X152.859 Y67.085 E114.14165
G1 X153.023 Y67.277 E114.15261
G1 X153.134 Y67.466 E114.16213
G1 X153.191 Y67.61 E114.16886
G1 X153.271 Y68.023 E114.18711
G1 X153.271 Y151.98 E117.83158
G1 X153.24 Y152.217 E117.84196
G1 X153.167 Y152.457 E117.85284
G1 X152.989 Y152.769 E117.86841
G1 X152.915 Y152.859 E117.87349
G1 X152.723 Y153.023 E117.88445
G1 X152.534 Y153.134 E117.89396
G1 X152.39 Y153.191 E117.9007
G1 X151.977 Y153.271 E117.91895
G1 X68.02 Y153.271 E121.56342
G1 X67.783 Y153.24 E121.57379
G1 X67.543 Y153.167 E121.58467
G1 X67.231 Y152.989 E121.60025
G1 X67.141 Y152.915 E121.60532
G1 X66.977 Y152.723 E121.61628
G1 X66.866 Y152.534 E121.6258
G1 X66.809 Y152.39 E121.63253
G1 X66.729 Y151.977 E121.65078
G1 X66.729 Y68.02 E125.29525
G1 X66.76 Y67.783 E125.30563
G1 X66.833 Y67.543 E125.31651
G1 X67.011 Y67.231 E125.33208
G1 X67.049 Y67.185 E125.33469
G1 X67.393 Y67.466 F18000
G1 F3000
G1 X67.493 Y67.37 E125.34074
G1 X67.702 Y67.247 E125.35123
G1 X68.01 Y67.177 E125.36495
G1 X151.989 Y67.177 E129.01037
G1 X152.152 Y67.204 E129.01755
G1 X152.326 Y67.262 E129.0255
G1 X152.534 Y67.393 E129.03616
G1 X152.63 Y67.493 E129.04221
G1 X152.753 Y67.702 E129.05269
G1 X152.823 Y68.01 E129.06642
G1 X152.823 Y151.989 E132.71183
G1 X152.796 Y152.152 E132.71901
G1 X152.738 Y152.326 E132.72696
G1 X152.607 Y152.534 E132.73762
G1 X152.507 Y152.63 E132.74367
G1 X152.298 Y152.753 E132.75415
G1 X151.99 Y152.823 E132.76788
G1 X68.011 Y152.823 E136.4133
G1 X67.848 Y152.796 E136.42047
G1 X67.674 Y152.738 E136.42843
G1 X67.466 Y152.607 E136.43909
G1 X67.37 Y152.507 E136.44514
G1 X67.247 Y152.298 E136.45562
G1 X67.177 Y151.99 E136.46935
G1 X67.177 Y68.011 E140.11476
G1 X67.204 Y67.848 E140.12194
G1 X67.262 Y67.674 E140.12989
G1 X67.371 Y67.5 E140.13881
G1 X67.692 Y67.8 F18000
G1 F3000
G1 X67.816 Y67.681 E140.14626
G1 X68 Y67.626 E140.15461
G1 X152 Y67.626 E143.80093
G1 X152.2 Y67.692 E143.81006
G1 X152.319 Y67.816 E143.81751
G1 X152.374 Y68 E143.82586
G1 X152.374 Y152 E147.47217
G1 X152.308 Y152.2 E147.4813
G1 X152.184 Y152.319 E147.48875
G1 X152 Y152.374 E147.4971
G1 X68 Y152.374 E151.14342
G1 X67.8 Y152.308 E151.15255
G1 X67.681 Y152.184 E151.16
G1 X67.626 Y152 E151.16835
G1 X67.626 Y68 E154.81466
G1 X67.68 Y67.838 E154.82206
G1 X68.325 Y68.325 F18000
;TYPE:Outer wall
G1 F3000
G1 X151.675 Y68.325 E158.44016
G1 X151.675 Y151.675 E162.05826
G1 X68.325 Y151.675 E165.67636
G1 X68.325 Y68.385 E169.29186
G1 X68.773 Y68.773 F18000
;TYPE:Inner wall
G1 F3000
G1 X151.227 Y68.773 E172.87102
G1 X151.227 Y151.227 E176.45019
G1 X68.773 Y151.227 E180.02935
G1 X68.773 Y68.833 E183.60591
G1 X69.222 Y69.222 F18000
G1 F3000
G1 X150.778 Y69.222 E187.14614
G1 X150.778 Y150.778 E190.68637
G1 X69.222 Y150.778 E194.2266
G1 X69.222 Y69.282 E197.76422
G1 E196.01422 F6000
;WIPE_START
G1 F3000
G1 X70.222 Y69.281 E195.26422
;WIPE_END
G92 E0
G1 X119.155 Y132.553 F18000
G1 E2.5 F6000
;TYPE:Outer wall
G1 F3000
G1 X119.237 Y132.726 E2.50831
G3 X116.464 Y131.303 I-2.234 J.94 E3.02246
G1 X116.702 Y131.261 E3.03296
G3 X119.128 Y132.499 I.301 J2.405 E3.15852
G1 X119.559 Y132.358 F18000
;TYPE:Inner wall
G1 F3000
G1 X119.651 Y132.551 E3.16781
G3 X116.364 Y130.865 I-2.648 J1.114 E3.77715
G1 X116.646 Y130.815 E3.78959
G3 X119.527 Y132.293 I.357 J2.851 E3.9389
G1 X119.532 Y132.305 E3.93945
G1 X119.964 Y132.164 F18000
G1 F3000
G1 X120.065 Y132.377 E3.9497
G3 X116.264 Y130.427 I-3.062 J1.288 E4.65423
G1 X116.59 Y130.37 E4.66861
G3 X119.921 Y132.079 I.413 J3.296 E4.84125
G1 X119.937 Y132.11 E4.84277
G1 E3.09277 F6000
;WIPE_START
G1 F3000
G1 X120.065 Y132.377 E2.87057
G1 X120.179 Y132.688 E2.62212
G1 X120.261 Y133.009 E2.3736
G1 X120.267 Y133.05 E2.34277
;WIPE_END
G92 E0
G1 X92.313 Y138.761 F18000
G1 E2.5 F6000
;TYPE:Outer wall
G1 F3000
G1 X91.903 Y138.688 E2.5181
G3 X93.296 Y120.101 I2.097 J-9.189 E3.68098
G1 X93.765 Y120.078 E3.70138
G3 X92.828 Y138.851 I.235 J9.422 E5.04787
G1 X92.372 Y138.772 E5.06795
G1 X92.22 Y139.211 F18000
;TYPE:Inner wall
G1 F3000
G1 X91.804 Y139.123 E5.08643
G3 X93.262 Y119.654 I2.196 J-9.625 E6.30451
G1 X93.754 Y119.629 E6.32589
G3 X92.286 Y139.221 I.246 J9.869 E7.75765
G1 X92.279 Y139.22 E7.75793
G1 X92.131 Y139.65 F18000
G1 F3000
G1 X91.704 Y139.561 E7.7769
