; HEADER_BLOCK_START
; generated by AnycubicSlicerNext 1.1.1 on 2026-03-04 at 12:12:48
; total layer number: 145
; filament_density: 1.24
; filament_diameter: 1.75
; max_z_height: 29.04
; HEADER_BLOCK_END

; THUMBNAIL_BLOCK_START

;
; THUMBNAIL_BLOCK_END

; external perimeters extrusion width = 0.42mm
; perimeters extrusion width = 0.45mm
; infill extrusion width = 0.45mm
; solid infill extrusion width = 0.42mm
; top infill extrusion width = 0.42mm
; first layer extrusion width = 0.50mm

; EXECUTABLE_BLOCK_START
M201 X2000 Y2000 Z800 E2000
M203 X300 Y300 Z8 E100
M204 P2000 R2000 T2000
M205 X10.00 Y10.00 Z2.00 E5.00 ; sets the jerk limits, mm/sec
;TYPE:Custom
G90 ; use absolute coordinates
M83 ; extruder relative mode
M104 S220 ; set extruder temp
M140 S60 ; set bed temp
M190 S60 ; wait for bed temp
M109 S220 ; wait for extruder temp
G28                                        ; move X/Y/Z to min endstops
G1 Z0.28                                   ; lift nozzle a bit 
G92 E0 
G1 Y3 F1800                                    ; zero the extruded length 
G1 X60  E25 F500                       ; Extrude 25mm of filament in a 5cm line. 
G92 E0                                     ; zero the extruded length again 
G1 E-2 F500                                ; Retract a little 
G1 X70 F4000                              ; Quickly wipe away from the filament line
M117
G90
G21
M82 ; use absolute distances for extrusion
G92 E0
; filament start gcode
M106 S0
;LAYER_CHANGE
;Z:0.24
;HEIGHT:0.24
; BEFORE_LAYER_CHANGE 0 @ 0.24mm
G1 E-2.5 F6000
G92 E0
; AFTER_LAYER_CHANGE 0 @ 0.24mm
;_SET_FAN_SPEED_CHANGING_LAYER
M204 S500
; printing object case assembly-Body.stl id:140733018119296 copy 0
G1 X55.402 Y67.703 F18000
G1 Z.24
G1 E2.5 F6000
;TYPE:Brim
;WIDTH:0.5
G1 F3000
G1 X56.118 Y67.151 E2.53925
G1 X56.677 Y66.757 E2.56898
G1 X57.438 Y66.269 E2.6082
G1 X58.433 Y65.706 E2.65782
G1 X59.223 Y65.314 E2.69611
G1 X60.051 Y64.952 E2.73534
G1 X60.896 Y64.632 E2.77456
G1 X61.756 Y64.353 E2.81381
G1 X62.416 Y64.17 E2.84354
G1 X63.297 Y63.967 E2.88279
G1 X64.187 Y63.807 E2.92202
G1 X65.082 Y63.691 E2.96121
G1 X66.202 Y63.608 E3.00995
G1 X66.999 Y63.589 E3.04457
G1 X153.11 Y63.591 E6.78254
G1 X153.98 Y63.617 E6.82032
G1 X154.908 Y63.69 E6.8607
G1 X155.804 Y63.805 E6.89993
G1 X156.693 Y63.965 E6.93915
G1 X157.575 Y64.168 E6.9784
G1 X158.235 Y64.35 E7.00813
G1 X159.095 Y64.629 E7.04738
G1 X159.94 Y64.949 E7.08661
G1 X160.768 Y65.31 E7.12583
G1 X161.577 Y65.711 E7.16502
G1 X162.554 Y66.264 E7.21374
G1 X163.292 Y66.736 E7.25178
G1 X164.05 Y67.276 E7.29218
G1 X164.59 Y67.697 E7.32191
G1 X165.279 Y68.283 E7.36117
G1 X165.937 Y68.902 E7.40039
G1 X166.564 Y69.553 E7.43962
G1 X167.158 Y70.234 E7.47884
G1 X167.718 Y70.942 E7.51803
G1 X168.365 Y71.859 E7.56675
G1 X168.844 Y72.625 E7.60594
G1 X169.285 Y73.414 E7.64517
G1 X169.687 Y74.224 E7.68442
G1 X169.964 Y74.85 E7.71415
G1 X170.295 Y75.691 E7.7534
G1 X170.584 Y76.547 E7.79262
G1 X170.83 Y77.417 E7.83185
G1 X171.033 Y78.297 E7.87104
G1 X171.225 Y79.402 E7.91976
G1 X171.331 Y80.3 E7.95898
G1 X171.381 Y80.982 E7.9887
G1 X171.411 Y82 E8.03287
G1 X171.411 Y137.997 E10.46366
G1 X171.393 Y138.79 E10.49808
G1 X171.332 Y139.691 E10.53729
G1 X171.227 Y140.589 E10.57651
G1 X171.078 Y141.48 E10.61574
G1 X170.885 Y142.363 E10.65496
G1 X170.649 Y143.235 E10.69418
G1 X170.371 Y144.095 E10.73341
G1 X170.051 Y144.94 E10.77263
G1 X169.69 Y145.768 E10.81185
G1 X169.289 Y146.577 E10.85105
G1 X168.736 Y147.554 E10.89977
G1 X168.249 Y148.314 E10.93896
G1 X167.725 Y149.05 E10.97818
G1 X167.165 Y149.759 E11.01741
G1 X166.571 Y150.44 E11.05663
G1 X165.944 Y151.091 E11.09586
G1 X165.285 Y151.711 E11.13511
G1 X164.767 Y152.158 E11.16483
G1 X164.058 Y152.719 E11.20408
G1 X163.322 Y153.244 E11.24331
G1 X162.562 Y153.731 E11.2825
G1 X161.586 Y154.285 E11.33122
G1 X160.777 Y154.686 E11.37042
G1 X159.949 Y155.048 E11.40964
G1 X159.103 Y155.368 E11.44889
G1 X158.453 Y155.583 E11.47862
G1 X157.583 Y155.83 E11.51787
G1 X156.704 Y156.033 E11.55706
G1 X155.577 Y156.228 E11.60668
G1 X154.701 Y156.331 E11.64498
G1 X153.799 Y156.392 E11.68422
G1 X153.001 Y156.411 E11.71887
G1 X66.894 Y156.409 E15.45666
G1 X65.992 Y156.382 E15.49581
G1 X65.309 Y156.332 E15.52554
G1 X64.411 Y156.227 E15.56479
G1 X63.52 Y156.078 E15.60402
G1 X62.637 Y155.885 E15.64324
G1 X61.765 Y155.649 E15.68246
G1 X60.905 Y155.371 E15.72169
G1 X60.06 Y155.051 E15.76091
G1 X59.232 Y154.69 E15.80013
G1 X58.422 Y154.289 E15.83936
G1 X57.633 Y153.848 E15.87858
G1 X56.867 Y153.37 E15.91777
G1 X55.95 Y152.724 E15.96649
G1 X55.262 Y152.181 E16.00453
G1 X54.56 Y151.571 E16.0449
G1 X53.909 Y150.944 E16.08413
G1 X53.289 Y150.285 E16.12338
G1 X52.842 Y149.767 E16.15311
G1 X52.281 Y149.058 E16.19236
G1 X51.768 Y148.339 E16.2307
G1 X51.272 Y147.568 E16.2705
G1 X50.715 Y146.586 E16.3195
G1 X50.313 Y145.776 E16.35872
G1 X50.036 Y145.151 E16.38842
G1 X49.632 Y144.103 E16.43717
G1 X49.353 Y143.244 E16.47636
G1 X49.117 Y142.372 E16.51558
G1 X48.924 Y141.489 E16.55484
G1 X48.807 Y140.814 E16.58457
G1 X48.693 Y139.938 E16.62293
G1 X48.619 Y139.023 E16.66275
G1 X48.589 Y138 E16.70717
G1 X48.591 Y81.894 E19.14268
G1 X48.618 Y80.986 E19.1821
G1 X48.671 Y80.282 E19.21273
G1 X48.773 Y79.411 E19.25081
G1 X48.922 Y78.52 E19.29004
G1 X49.115 Y77.637 E19.32926
G1 X49.351 Y76.765 E19.36848
G1 X49.629 Y75.905 E19.40771
G1 X49.949 Y75.06 E19.44693
G1 X50.31 Y74.232 E19.48615
G1 X50.711 Y73.422 E19.52537
G1 X51.151 Y72.634 E19.56457
G1 X51.751 Y71.685 E19.61329
G1 X52.275 Y70.95 E19.65248
G1 X52.835 Y70.241 E19.69171
G1 X53.429 Y69.56 E19.73093
G1 X54.056 Y68.909 E19.77015
G1 X54.714 Y68.29 E19.80937
G1 X55.371 Y67.729 E19.84686
G1 X55.662 Y68.071 F18000
G1 F3000
G1 X55.687 Y68.05 E19.84827
G1 X56.382 Y67.514 E19.88635
G1 X56.93 Y67.127 E19.91549
G1 X57.666 Y66.655 E19.95346
G1 X58.646 Y66.101 E20.00233
G1 X59.415 Y65.719 E20.0396
G1 X60.224 Y65.367 E20.07787
G1 X61.048 Y65.054 E20.11614
G1 X61.882 Y64.784 E20.15422
G1 X62.529 Y64.604 E20.18336
G1 X63.384 Y64.407 E20.22144
G1 X64.252 Y64.251 E20.25971
G1 X65.124 Y64.137 E20.29788
G1 X66.227 Y64.056 E20.34589
G1 X67.006 Y64.038 E20.37971
G1 X153.101 Y64.039 E24.117
G1 X153.959 Y64.065 E24.15426
G1 X154.865 Y64.136 E24.19369
G1 X155.739 Y64.249 E24.23194
G1 X156.6 Y64.404 E24.26993
G1 X157.462 Y64.602 E24.3083
G1 X158.109 Y64.781 E24.33744
G1 X158.943 Y65.051 E24.37552
G1 X159.768 Y65.363 E24.41379
G1 X160.576 Y65.715 E24.45206
G1 X161.364 Y66.105 E24.49022
G1 X162.325 Y66.65 E24.53819
G1 X163.043 Y67.11 E24.5752
G1 X163.78 Y67.634 E24.61444
G1 X164.309 Y68.047 E24.64357
G1 X164.977 Y68.616 E24.68166
G1 X165.619 Y69.219 E24.71992
G1 X166.231 Y69.854 E24.75819
G1 X166.811 Y70.518 E24.79646
G1 X167.357 Y71.207 E24.83462
G1 X167.993 Y72.111 E24.88259
G1 X168.459 Y72.856 E24.92075
G1 X168.886 Y73.62 E24.95873
G1 X169.279 Y74.412 E24.99711
G1 X169.551 Y75.025 E25.02624
G1 X169.872 Y75.842 E25.06433
G1 X170.154 Y76.677 E25.10259
G1 X170.395 Y77.525 E25.14086
G1 X170.593 Y78.382 E25.17902
G1 X170.782 Y79.471 E25.227
G1 X170.884 Y80.34 E25.26497
G1 X170.933 Y81.002 E25.29383
G1 X170.962 Y82.008 E25.33749
G1 X170.962 Y137.991 E27.76763
G1 X170.944 Y138.773 E27.80159
G1 X170.885 Y139.647 E27.83961
G1 X170.783 Y140.523 E27.87788
G1 X170.638 Y141.392 E27.91615
G1 X170.45 Y142.253 E27.95442
G1 X170.22 Y143.105 E27.99268
G1 X169.949 Y143.943 E28.03095
G1 X169.637 Y144.768 E28.06922
G1 X169.285 Y145.576 E28.10748
G1 X168.895 Y146.364 E28.14565
G1 X168.354 Y147.319 E28.1933
G1 X167.879 Y148.06 E28.23149
G1 X167.368 Y148.778 E28.26976
G1 X166.821 Y149.47 E28.30803
G1 X166.242 Y150.134 E28.34629
G1 X165.631 Y150.769 E28.38456
G1 X164.987 Y151.375 E28.42293
G1 X164.483 Y151.81 E28.45182
G1 X163.785 Y152.362 E28.49044
G1 X163.068 Y152.874 E28.52871
G1 X162.327 Y153.349 E28.56691
G1 X161.372 Y153.89 E28.61456
G1 X160.584 Y154.281 E28.65272
G1 X159.776 Y154.633 E28.69099
G1 X158.956 Y154.945 E28.72907
G1 X158.319 Y155.155 E28.75821
G1 X157.475 Y155.395 E28.7963
G1 X156.618 Y155.593 E28.83444
G1 X155.509 Y155.784 E28.88331
G1 X154.656 Y155.884 E28.92058
G1 X153.776 Y155.944 E28.95891
G1 X152.994 Y155.962 E28.99283
G1 X66.898 Y155.961 E32.73012
G1 X66.018 Y155.934 E32.76834
G1 X65.355 Y155.885 E32.79723
G1 X64.477 Y155.783 E32.83557
G1 X63.608 Y155.638 E32.87383
G1 X62.747 Y155.45 E32.9121
G1 X61.889 Y155.218 E32.95066
G1 X61.05 Y154.947 E32.98892
G1 X60.226 Y154.634 E33.02719
G1 X59.418 Y154.282 E33.06546
G1 X58.628 Y153.89 E33.10372
G1 X57.859 Y153.46 E33.14199
G1 X57.112 Y152.994 E33.18019
G1 X56.215 Y152.362 E33.22784
G1 X55.546 Y151.834 E33.26485
G1 X54.861 Y151.237 E33.30428
G1 X54.226 Y150.626 E33.34254
G1 X53.625 Y149.987 E33.38062
G1 X53.19 Y149.483 E33.4095
G1 X52.638 Y148.785 E33.44813
G1 X52.138 Y148.084 E33.48551
G1 X51.658 Y147.339 E33.52401
G1 X51.11 Y146.372 E33.57224
G1 X50.721 Y145.588 E33.61022
G1 X50.449 Y144.976 E33.63929
G1 X50.053 Y143.95 E33.68704
G1 X49.782 Y143.113 E33.7252
G1 X49.552 Y142.262 E33.76347
G1 X49.365 Y141.405 E33.80156
G1 X49.25 Y140.744 E33.8307
G1 X49.139 Y139.888 E33.86818
G1 X49.067 Y139.002 E33.90675
G1 X49.038 Y137.992 E33.95061
G1 X49.039 Y81.899 E36.38555
G1 X49.067 Y81.007 E36.42427
G1 X49.118 Y80.322 E36.45406
G1 X49.217 Y79.477 E36.49099
G1 X49.362 Y78.608 E36.52926
G1 X49.55 Y77.747 E36.56753
G1 X49.78 Y76.895 E36.6058
G1 X50.051 Y76.057 E36.64406
G1 X50.363 Y75.232 E36.68233
G1 X50.715 Y74.424 E36.7206
G1 X51.11 Y73.628 E36.75915
G1 X51.539 Y72.86 E36.79735
G1 X52.122 Y71.939 E36.84468
G1 X52.632 Y71.222 E36.88287
G1 X53.179 Y70.53 E36.92114
G1 X53.758 Y69.866 E36.95941
G1 X54.369 Y69.231 E36.99768
G1 X55.016 Y68.622 E37.03623
G1 X55.632 Y68.097 E37.07136
G1 X55.923 Y68.438 F18000
G1 F3000
G1 X55.967 Y68.4 E37.07388
G1 X56.646 Y67.877 E37.11108
G1 X57.183 Y67.498 E37.13963
G1 X57.901 Y67.037 E37.17667
G1 X58.853 Y66.499 E37.22414
G1 X59.608 Y66.124 E37.26071
G1 X60.39 Y65.783 E37.29774
G1 X61.194 Y65.478 E37.33505
G1 X62.014 Y65.212 E37.37251
G1 X62.643 Y65.039 E37.40081
G1 X63.478 Y64.846 E37.43801
G1 X64.317 Y64.695 E37.47504
G1 X65.165 Y64.584 E37.51217
G1 X66.252 Y64.504 E37.55946
G1 X67.012 Y64.486 E37.59248
G1 X153.093 Y64.488 E41.3291
G1 X153.938 Y64.513 E41.36581
G1 X154.822 Y64.583 E41.4043
G1 X155.667 Y64.692 E41.4413
G1 X156.507 Y64.843 E41.47833
G1 X157.349 Y65.036 E41.51582
G1 X157.982 Y65.212 E41.54437
G1 X158.798 Y65.475 E41.58157
G1 X159.596 Y65.777 E41.6186
G1 X160.384 Y66.121 E41.65591
G1 X161.15 Y66.5 E41.69304
G1 X162.097 Y67.036 E41.74025
G1 X162.795 Y67.484 E41.77625
G1 X163.509 Y67.992 E41.81431
G1 X164.028 Y68.396 E41.84285
G1 X164.675 Y68.948 E41.87977
G1 X165.302 Y69.536 E41.91708
G1 X165.898 Y70.155 E41.9544
G1 X166.464 Y70.802 E41.99171
G1 X166.995 Y71.473 E42.02884
G1 X167.621 Y72.362 E42.07605
G1 X168.071 Y73.082 E42.1129
G1 X168.488 Y73.826 E42.14993
G1 X168.872 Y74.6 E42.18742
G1 X169.139 Y75.201 E42.21597
G1 X169.45 Y75.993 E42.25288
G1 X169.724 Y76.807 E42.2902
G1 X169.959 Y77.634 E42.32751
G1 X170.152 Y78.467 E42.36464
G1 X170.338 Y79.539 E42.41186
G1 X170.437 Y80.379 E42.44859
G1 X170.485 Y81.022 E42.47658
G1 X170.514 Y82.016 E42.51974
G1 X170.514 Y137.984 E44.94922
G1 X170.496 Y138.756 E44.98272
G1 X170.439 Y139.602 E45.01957
G1 X170.339 Y140.456 E45.05688
G1 X170.198 Y141.304 E45.09419
G1 X170.015 Y142.144 E45.1315
G1 X169.791 Y142.974 E45.16881
G1 X169.527 Y143.792 E45.20612
G1 X169.223 Y144.596 E45.24344
G1 X168.879 Y145.384 E45.28074
G1 X168.5 Y146.15 E45.31788
G1 X167.972 Y147.084 E45.36445
G1 X167.509 Y147.806 E45.40166
G1 X167.011 Y148.506 E45.43897
G1 X166.478 Y149.181 E45.47628
G1 X165.913 Y149.829 E45.51359
G1 X165.317 Y150.448 E45.5509
G1 X164.689 Y151.04 E45.58839
G1 X164.2 Y151.463 E45.61643
G1 X163.513 Y152.005 E45.65443
G1 X162.813 Y152.504 E45.69173
G1 X162.092 Y152.967 E45.72894
G1 X161.158 Y153.496 E45.77551
G1 X160.392 Y153.876 E45.81265
G1 X159.604 Y154.219 E45.84996
G1 X158.809 Y154.521 E45.88688
G1 X158.184 Y154.727 E45.91543
G1 X157.366 Y154.959 E45.95235
G1 X156.533 Y155.152 E45.98945
G1 X155.441 Y155.341 E46.03757
G1 X154.612 Y155.438 E46.07382
G1 X153.752 Y155.496 E46.11121
G1 X152.988 Y155.514 E46.14441
G1 X66.903 Y155.512 E49.88121
G1 X66.044 Y155.486 E49.9185
G1 X65.4 Y155.439 E49.94655
G1 X64.544 Y155.339 E49.98397
G1 X63.696 Y155.198 E50.02128
G1 X62.856 Y155.015 E50.05859
G1 X62.02 Y154.789 E50.09619
G1 X61.202 Y154.525 E50.1335
G1 X60.392 Y154.218 E50.17109
G1 X59.604 Y153.874 E50.20841
G1 X58.834 Y153.492 E50.24572
G1 X58.084 Y153.073 E50.28303
G1 X57.357 Y152.618 E50.32023
G1 X56.48 Y152 E50.36681
G1 X55.83 Y151.486 E50.4028
G1 X55.161 Y150.904 E50.44127
G1 X54.543 Y150.308 E50.47856
G1 X53.96 Y149.689 E50.51548
G1 X53.537 Y149.2 E50.54353
G1 X52.995 Y148.513 E50.58152
G1 X52.507 Y147.83 E50.61796
G1 X52.044 Y147.11 E50.65513
G1 X51.504 Y146.158 E50.70262
G1 X51.128 Y145.4 E50.73934
G1 X50.863 Y144.801 E50.76778
G1 X50.475 Y143.796 E50.81454
G1 X50.212 Y142.983 E50.85167
G1 X49.987 Y142.153 E50.88898
G1 X49.806 Y141.322 E50.9259
G1 X49.693 Y140.674 E50.95445
G1 X49.585 Y139.837 E50.99106
G1 X49.516 Y138.981 E51.02836
G1 X49.486 Y137.983 E51.07168
G1 X49.488 Y81.903 E53.50604
G1 X49.515 Y81.028 E53.54407
G1 X49.565 Y80.363 E53.57302
G1 X49.661 Y79.544 E53.6088
G1 X49.802 Y78.696 E53.64612
G1 X49.985 Y77.856 E53.68343
G1 X50.209 Y77.026 E53.72074
G1 X50.476 Y76.202 E53.75834
G1 X50.78 Y75.398 E53.79565
G1 X51.123 Y74.61 E53.83296
G1 X51.508 Y73.834 E53.87055
G1 X51.926 Y73.086 E53.90775
G1 X52.492 Y72.192 E53.95369
G1 X52.993 Y71.489 E53.99118
G1 X53.526 Y70.814 E54.0285
G1 X54.091 Y70.166 E54.0658
G1 X54.683 Y69.552 E54.10283
G1 X55.313 Y68.958 E54.14042
G1 X55.892 Y68.464 E54.17348
G1 X56.184 Y68.805 F18000
G1 F3000
G1 X56.247 Y68.751 E54.17711
G1 X56.91 Y68.24 E54.21343
G1 X57.436 Y67.869 E54.24139
G1 X58.136 Y67.42 E54.2775
G1 X59.06 Y66.897 E54.32358
G1 X59.794 Y66.533 E54.35916
G1 X60.556 Y66.2 E54.39523
G1 X61.339 Y65.903 E54.4316
G1 X62.146 Y65.641 E54.46842
G1 X62.756 Y65.473 E54.49588
G1 X63.571 Y65.285 E54.5322
G1 X64.383 Y65.138 E54.56799
G1 X65.207 Y65.031 E54.60409
G1 X66.277 Y64.952 E54.65066
G1 X67.019 Y64.935 E54.68287
G1 X153.084 Y64.936 E58.41881
G1 X153.917 Y64.962 E58.455
G1 X154.772 Y65.029 E58.49224
G1 X155.596 Y65.135 E58.52828
G1 X156.414 Y65.282 E58.56436
G1 X157.236 Y65.47 E58.60096
G1 X157.856 Y65.642 E58.62892
G1 X158.646 Y65.898 E58.66496
G1 X159.424 Y66.192 E58.70103
G1 X160.192 Y66.526 E58.73739
G1 X160.937 Y66.895 E58.77349
G1 X161.868 Y67.422 E58.81995
G1 X162.546 Y67.857 E58.85492
G1 X163.239 Y68.35 E58.89182
G1 X163.747 Y68.746 E58.91976
G1 X164.374 Y69.28 E58.95552
G1 X164.984 Y69.853 E58.99187
G1 X165.566 Y70.456 E59.02823
G1 X166.117 Y71.087 E59.06459
G1 X166.633 Y71.739 E59.10068
G1 X167.25 Y72.614 E59.14714
G1 X167.687 Y73.313 E59.18296
G1 X168.089 Y74.033 E59.21875
G1 X168.465 Y74.788 E59.25536
G1 X168.726 Y75.377 E59.28331
G1 X169.029 Y76.15 E59.31935
G1 X169.295 Y76.937 E59.35543
G1 X169.524 Y77.743 E59.39178
G1 X169.711 Y78.553 E59.42788
G1 X169.895 Y79.607 E59.47434
G1 X169.99 Y80.419 E59.50984
G1 X170.037 Y81.043 E59.53696
G1 X170.065 Y82.025 E59.57962
G1 X170.065 Y137.977 E62.00844
G1 X170.048 Y138.738 E62.04148
G1 X169.992 Y139.558 E62.07715
G1 X169.895 Y140.39 E62.1135
G1 X169.758 Y141.216 E62.14986
G1 X169.58 Y142.035 E62.18622
G1 X169.362 Y142.843 E62.22257
G1 X169.104 Y143.64 E62.25893
G1 X168.808 Y144.424 E62.29528
G1 X168.474 Y145.192 E62.33164
G1 X168.105 Y145.937 E62.36774
G1 X167.589 Y146.849 E62.41324
G1 X167.139 Y147.552 E62.44945
G1 X166.654 Y148.234 E62.4858
G1 X166.135 Y148.892 E62.52216
G1 X165.585 Y149.523 E62.55851
G1 X165.004 Y150.127 E62.59487
G1 X164.39 Y150.705 E62.63148
G1 X163.916 Y151.115 E62.65867
G1 X163.241 Y151.648 E62.69603
G1 X162.559 Y152.134 E62.73238
G1 X161.857 Y152.584 E62.76858
G1 X160.945 Y153.101 E62.81409
G1 X160.2 Y153.47 E62.85019
G1 X159.432 Y153.805 E62.88655
G1 X158.662 Y154.097 E62.92231
G1 X158.05 Y154.299 E62.95027
G1 X157.251 Y154.525 E62.98631
G1 X156.448 Y154.711 E63.02209
G1 X155.373 Y154.897 E63.06945
G1 X154.567 Y154.991 E63.10467
