; HEADER_BLOCK_START
; generated by AnycubicSlicerNext 1.1.1 on 2026-03-04 at 14:43:10
; total layer number: 445
; filament_density: 1.24
; filament_diameter: 1.75
; max_z_height: 89.04
; HEADER_BLOCK_END

; THUMBNAIL_BLOCK_START

;
; THUMBNAIL_BLOCK_END

; external perimeters extrusion width = 0.42mm
; perimeters extrusion width = 0.45mm
; infill extrusion width = 0.45mm
; solid infill extrusion width = 0.42mm
; top infill extrusion width = 0.42mm
; first layer extrusion width = 0.50mm

; EXECUTABLE_BLOCK_START
M201 X2000 Y2000 Z800 E2000
M203 X300 Y300 Z8 E100
M204 P2000 R2000 T2000
M205 X10.00 Y10.00 Z2.00 E5.00 ; sets the jerk limits, mm/sec
;TYPE:Custom
G90 ; use absolute coordinates
M83 ; extruder relative mode
M104 S220 ; set extruder temp
M140 S60 ; set bed temp
M190 S60 ; wait for bed temp
M109 S220 ; wait for extruder temp
G28                                        ; move X/Y/Z to min endstops
G1 Z0.28                                   ; lift nozzle a bit 
G92 E0 
G1 Y3 F1800                                    ; zero the extruded length 
G1 X60  E25 F500                       ; Extrude 25mm of filament in a 5cm line. 
G92 E0                                     ; zero the extruded length again 
G1 E-2 F500                                ; Retract a little 
G1 X70 F4000                              ; Quickly wipe away from the filament line
M117
G90
G21
M82 ; use absolute distances for extrusion
G92 E0
; filament start gcode
M106 S0
;LAYER_CHANGE
;Z:0.24
;HEIGHT:0.24
; BEFORE_LAYER_CHANGE 0 @ 0.24mm
G1 E-2.5 F6000
G92 E0
; AFTER_LAYER_CHANGE 0 @ 0.24mm
;_SET_FAN_SPEED_CHANGING_LAYER
M204 S500
; printing object case assembly-Body Wall Mount.stl id:2152239654144 copy 0
G1 X44.868 Y96.934 F18000
G1 Z.24
G1 E2.5 F6000
;TYPE:Brim
;WIDTH:0.5
G1 F3000
G1 X45.355 Y96.72 E2.52306
G1 X46.239 Y96.425 E2.56352
G1 X47.042 Y96.265 E2.59904
G1 X48.008 Y96.198 E2.64107
G1 X171.993 Y96.198 E8.02311
G1 X172.819 Y96.247 E8.059
G1 X173.623 Y96.391 E8.09447
G1 X174.782 Y96.78 E8.14752
G1 X175.62 Y97.198 E8.18818
G1 X176.302 Y97.653 E8.22375
G1 X176.926 Y98.185 E8.25936
G1 X177.483 Y98.787 E8.29496
G1 X177.965 Y99.451 E8.33057
G1 X178.366 Y100.168 E8.36624
G1 X178.619 Y100.756 E8.39403
G1 X178.874 Y101.539 E8.42976
G1 X179.035 Y102.342 E8.46532
G1 X179.102 Y103.308 E8.50735
G1 X179.102 Y116.693 E9.0884
G1 X179.053 Y117.519 E9.1243
G1 X178.909 Y118.323 E9.15976
G1 X178.52 Y119.482 E9.21282
G1 X178.102 Y120.32 E9.25348
G1 X177.647 Y121.002 E9.28905
G1 X177.115 Y121.626 E9.32465
G1 X176.513 Y122.183 E9.36026
G1 X175.849 Y122.665 E9.39586
G1 X175.132 Y123.066 E9.43157
G1 X174.645 Y123.28 E9.45463
G1 X173.761 Y123.575 E9.49509
G1 X172.958 Y123.735 E9.53061
G1 X171.992 Y123.802 E9.57264
G1 X48.007 Y123.802 E14.95468
G1 X47.181 Y123.753 E14.99057
G1 X46.377 Y123.609 E15.02604
G1 X45.218 Y123.22 E15.07909
G1 X44.38 Y122.802 E15.11975
G1 X43.698 Y122.347 E15.15532
G1 X43.074 Y121.815 E15.19093
G1 X42.517 Y121.213 E15.22653
G1 X42.035 Y120.549 E15.26214
G1 X41.634 Y119.832 E15.29781
G1 X41.381 Y119.244 E15.32559
G1 X41.126 Y118.461 E15.36133
G1 X40.965 Y117.658 E15.39689
G1 X40.898 Y116.692 E15.43892
G1 X40.898 Y103.307 E16.01997
G1 X40.947 Y102.481 E16.05586
G1 X41.091 Y101.677 E16.09133
G1 X41.48 Y100.518 E16.14438
G1 X41.898 Y99.68 E16.18505
G1 X42.353 Y98.998 E16.22061
G1 X42.885 Y98.374 E16.25622
G1 X43.487 Y97.817 E16.29182
G1 X44.151 Y97.335 E16.32743
G1 X44.834 Y96.953 E16.3614
G1 X45.053 Y97.345 F18000
G1 F3000
G1 X45.074 Y97.333 E16.36249
G1 X45.522 Y97.137 E16.38369
G1 X46.347 Y96.862 E16.42142
G1 X47.093 Y96.712 E16.45446
G1 X48.028 Y96.647 E16.49515
G1 X171.984 Y96.647 E21.87591
G1 X172.758 Y96.693 E21.90956
G1 X173.502 Y96.825 E21.94236
G1 X174.601 Y97.192 E21.99264
G1 X175.402 Y97.591 E22.03149
G1 X176.037 Y98.016 E22.06466
G1 X176.62 Y98.515 E22.09796
G1 X177.13 Y99.066 E22.13058
G1 X177.582 Y99.686 E22.16388
G1 X177.96 Y100.36 E22.19743
G1 X178.197 Y100.909 E22.22335
G1 X178.437 Y101.645 E22.25697
G1 X178.588 Y102.393 E22.29009
G1 X178.653 Y103.319 E22.33037
G1 X178.653 Y116.676 E22.9102
G1 X178.607 Y117.458 E22.9442
G1 X178.47 Y118.221 E22.97785
G1 X178.108 Y119.301 E23.02728
G1 X177.709 Y120.102 E23.06613
G1 X177.284 Y120.737 E23.09931
G1 X176.796 Y121.308 E23.13192
G1 X176.234 Y121.83 E23.16522
G1 X175.6 Y122.29 E23.19921
G1 X174.926 Y122.667 E23.23275
G1 X174.478 Y122.863 E23.25396
G1 X173.653 Y123.138 E23.29169
G1 X172.907 Y123.288 E23.32473
G1 X171.972 Y123.353 E23.36542
G1 X48.016 Y123.353 E28.74617
G1 X47.242 Y123.307 E28.77982
G1 X46.498 Y123.175 E28.81262
G1 X45.399 Y122.808 E28.86291
G1 X44.598 Y122.409 E28.90176
G1 X43.963 Y121.984 E28.93493
G1 X43.392 Y121.496 E28.96754
G1 X42.86 Y120.921 E29.00153
G1 X42.41 Y120.3 E29.03483
G1 X42.04 Y119.64 E29.0677
G1 X41.799 Y119.08 E29.09415
G1 X41.563 Y118.355 E29.12724
G1 X41.412 Y117.607 E29.16036
G1 X41.347 Y116.672 E29.20104
G1 X41.347 Y103.324 E29.78047
G1 X41.393 Y102.542 E29.81447
G1 X41.53 Y101.779 E29.84812
G1 X41.892 Y100.699 E29.89755
G1 X42.291 Y99.898 E29.9364
G1 X42.716 Y99.263 E29.96957
G1 X43.204 Y98.692 E30.00219
G1 X43.766 Y98.17 E30.03549
G1 X44.4 Y97.71 E30.06948
G1 X45.018 Y97.365 E30.1002
G1 X45.237 Y97.757 F18000
G1 F3000
G1 X45.28 Y97.733 E30.10235
G1 X45.689 Y97.555 E30.1217
G1 X46.454 Y97.299 E30.15673
G1 X47.145 Y97.159 E30.1873
G1 X48.048 Y97.095 E30.22662
G1 X171.967 Y97.096 E35.60575
G1 X172.697 Y97.138 E35.63752
G1 X173.381 Y97.259 E35.66766
G1 X174.42 Y97.604 E35.71516
G1 X175.183 Y97.985 E35.75218
G1 X175.771 Y98.379 E35.78294
G1 X176.314 Y98.844 E35.81395
G1 X176.788 Y99.358 E35.84428
G1 X177.199 Y99.923 E35.87461
G1 X177.554 Y100.554 E35.90603
G1 X177.774 Y101.062 E35.93008
G1 X178 Y101.752 E35.96158
G1 X178.141 Y102.445 E35.99228
G1 X178.204 Y103.339 E36.03121
G1 X178.205 Y116.659 E36.6094
G1 X178.162 Y117.397 E36.64149
G1 X178.031 Y118.119 E36.67333
G1 X177.696 Y119.12 E36.71915
G1 X177.315 Y119.883 E36.75618
G1 X176.93 Y120.459 E36.78626
G1 X176.477 Y120.991 E36.8166
G1 X175.954 Y121.477 E36.84759
G1 X175.365 Y121.907 E36.87925
G1 X174.72 Y122.267 E36.91132
G1 X174.311 Y122.445 E36.93067
G1 X173.546 Y122.701 E36.9657
G1 X172.855 Y122.841 E36.99627
G1 X171.952 Y122.905 E37.0356
G1 X48.025 Y122.904 E42.41506
G1 X47.303 Y122.862 E42.44649
G1 X46.619 Y122.741 E42.47663
G1 X45.58 Y122.396 E42.52413
G1 X44.817 Y122.015 E42.56115
G1 X44.241 Y121.63 E42.59124
G1 X43.709 Y121.177 E42.62155
G1 X43.203 Y120.63 E42.65392
G1 X42.793 Y120.065 E42.68423
G1 X42.446 Y119.447 E42.71498
G1 X42.217 Y118.915 E42.7401
G1 X42 Y118.249 E42.77055
G1 X41.859 Y117.555 E42.80125
G1 X41.795 Y116.652 E42.84057
G1 X41.795 Y103.341 E43.41838
G1 X41.838 Y102.603 E43.45046
G1 X41.969 Y101.881 E43.4823
G1 X42.304 Y100.88 E43.52812
G1 X42.685 Y100.117 E43.56515
G1 X43.07 Y99.541 E43.59523
G1 X43.523 Y99.009 E43.62557
G1 X44.046 Y98.523 E43.65656
G1 X44.635 Y98.093 E43.68822
G1 X45.202 Y97.776 E43.7164
G1 X45.421 Y98.168 F18000
G1 F3000
G1 X45.486 Y98.132 E43.71962
G1 X45.855 Y97.972 E43.73711
G1 X46.563 Y97.736 E43.76948
G1 X47.197 Y97.606 E43.79757
G1 X48.069 Y97.544 E43.83553
G1 X171.95 Y97.544 E49.21302
G1 X172.637 Y97.584 E49.24292
G1 X173.261 Y97.693 E49.27041
G1 X174.239 Y98.017 E49.31512
G1 X174.964 Y98.378 E49.35029
G1 X175.506 Y98.742 E49.37861
G1 X176.007 Y99.174 E49.40732
G1 X176.435 Y99.637 E49.43471
G1 X176.816 Y100.159 E49.46277
G1 X177.148 Y100.747 E49.49208
G1 X177.352 Y101.216 E49.51425
G1 X177.564 Y101.859 E49.54364
G1 X177.694 Y102.497 E49.57191
G1 X177.756 Y103.36 E49.60947
G1 X177.756 Y116.642 E50.18603
G1 X177.714 Y117.352 E50.2169
G1 X177.593 Y118.016 E50.24622
G1 X177.283 Y118.938 E50.28844
G1 X176.922 Y119.665 E50.32365
G1 X176.566 Y120.194 E50.35133
G1 X176.158 Y120.675 E50.37872
G1 X175.674 Y121.125 E50.4074
G1 X175.115 Y121.533 E50.43743
G1 X174.514 Y121.868 E50.46729
G1 X174.145 Y122.028 E50.48478
G1 X173.437 Y122.264 E50.51715
G1 X172.803 Y122.394 E50.54525
G1 X171.931 Y122.456 E50.58321
G1 X48.034 Y122.455 E55.96137
G1 X47.363 Y122.416 E55.99059
G1 X46.739 Y122.307 E56.01808
G1 X45.761 Y121.983 E56.06279
G1 X45.035 Y121.622 E56.09797
G1 X44.506 Y121.266 E56.12566
G1 X44.026 Y120.858 E56.153
G1 X43.545 Y120.339 E56.18373
G1 X43.168 Y119.816 E56.21174
G1 X42.852 Y119.254 E56.2397
G1 X42.635 Y118.751 E56.26348
G1 X42.437 Y118.142 E56.2913
G1 X42.306 Y117.503 E56.31957
G1 X42.244 Y116.631 E56.35753
G1 X42.244 Y103.358 E56.9337
G1 X42.284 Y102.664 E56.96387
G1 X42.402 Y102.003 E56.99304
G1 X42.717 Y101.062 E57.03611
G1 X43.078 Y100.335 E57.07132
G1 X43.434 Y99.806 E57.099
G1 X43.842 Y99.325 E57.12639
G1 X44.326 Y98.875 E57.15507
G1 X44.885 Y98.467 E57.1851
G1 X45.386 Y98.188 E57.21001
G1 X45.605 Y98.58 F18000
G1 F3000
G1 X45.691 Y98.532 E57.21427
G1 X46.021 Y98.389 E57.2299
G1 X46.671 Y98.173 E57.25964
G1 X47.249 Y98.053 E57.28527
G1 X48.09 Y97.992 E57.32185
G1 X171.933 Y97.993 E62.69769
G1 X172.578 Y98.03 E62.72573
G1 X173.142 Y98.128 E62.75059
G1 X174.059 Y98.43 E62.79248
G1 X174.745 Y98.771 E62.82579
G1 X175.239 Y99.105 E62.85165
G1 X175.7 Y99.502 E62.87808
G1 X176.093 Y99.929 E62.90322
G1 X176.434 Y100.396 E62.92835
G1 X176.743 Y100.941 E62.95555
G1 X176.93 Y101.37 E62.97584
G1 X177.127 Y101.967 E63.00312
G1 X177.247 Y102.549 E63.02895
G1 X177.307 Y103.381 E63.06514
G1 X177.308 Y116.625 E63.64003
G1 X177.268 Y117.29 E63.66896
G1 X177.159 Y117.895 E63.69564
G1 X176.871 Y118.758 E63.73513
G1 X176.528 Y119.446 E63.7685
G1 X176.213 Y119.917 E63.79311
G1 X175.838 Y120.358 E63.81825
G1 X175.394 Y120.773 E63.84462
G1 X174.88 Y121.149 E63.87229
G1 X174.309 Y121.468 E63.90065
G1 X173.979 Y121.611 E63.91628
G1 X173.329 Y121.827 E63.94601
G1 X172.751 Y121.947 E63.97164
G1 X171.91 Y122.008 E64.00822
G1 X48.044 Y122.007 E69.38508
G1 X47.422 Y121.97 E69.4121
G1 X46.858 Y121.872 E69.43696
G1 X45.941 Y121.57 E69.47886
G1 X45.254 Y121.228 E69.51218
G1 X44.783 Y120.913 E69.53678
G1 X44.343 Y120.539 E69.56183
G1 X43.888 Y120.047 E69.59092
G1 X43.542 Y119.567 E69.61662
G1 X43.258 Y119.061 E69.64181
G1 X43.053 Y118.586 E69.66425
G1 X42.873 Y118.034 E69.68946
G1 X42.753 Y117.451 E69.71531
G1 X42.692 Y116.61 E69.7519
G1 X42.692 Y103.375 E70.32642
G1 X42.73 Y102.725 E70.35469
G1 X42.837 Y102.123 E70.38121
G1 X43.129 Y101.242 E70.42151
G1 X43.472 Y100.554 E70.45487
G1 X43.787 Y100.083 E70.47948
G1 X44.162 Y99.642 E70.50462
G1 X44.606 Y99.227 E70.53099
G1 X45.12 Y98.851 E70.55866
G1 X45.57 Y98.6 E70.58101
G1 X45.789 Y98.992 F18000
G1 F3000
G1 X45.896 Y98.932 E70.58635
G1 X46.187 Y98.807 E70.6001
G1 X46.78 Y98.609 E70.62725
G1 X47.302 Y98.5 E70.65041
G1 X48.111 Y98.441 E70.6856
G1 X171.916 Y98.441 E76.05978
G1 X172.519 Y98.476 E76.086
G1 X173.023 Y98.562 E76.10821
G1 X173.878 Y98.843 E76.14728
G1 X174.527 Y99.165 E76.1787
G1 X174.972 Y99.467 E76.20208
G1 X175.393 Y99.831 E76.22623
G1 X175.74 Y100.208 E76.24848
G1 X176.052 Y100.634 E76.27138
G1 X176.338 Y101.136 E76.29647
G1 X176.508 Y101.524 E76.31487
G1 X176.69 Y102.075 E76.34005
G1 X176.8 Y102.603 E76.36344
G1 X176.859 Y103.402 E76.39825
G1 X176.859 Y116.607 E76.97146
G1 X176.823 Y117.229 E76.99847
G1 X176.725 Y117.774 E77.02252
G1 X176.458 Y118.577 E77.05925
G1 X176.135 Y119.227 E77.09078
G1 X175.849 Y119.652 E77.11299
G1 X175.518 Y120.043 E77.13524
G1 X175.114 Y120.421 E77.15928
G1 X174.63 Y120.775 E77.1853
G1 X174.104 Y121.068 E77.21142
G1 X173.813 Y121.193 E77.22518
G1 X173.22 Y121.391 E77.25232
G1 X172.698 Y121.5 E77.27548
G1 X171.889 Y121.559 E77.31067
G1 X48.053 Y121.558 E82.68621
G1 X47.482 Y121.524 E82.71106
G1 X46.977 Y121.438 E82.73329
G1 X46.121 Y121.157 E82.77236
G1 X45.473 Y120.835 E82.80381
G1 X45.048 Y120.549 E82.82601
G1 X44.66 Y120.22 E82.8481
G1 X44.231 Y119.756 E82.87553
G1 X43.925 Y119.332 E82.89825
G1 X43.664 Y118.868 E82.92136
G1 X43.471 Y118.422 E82.94245
G1 X43.31 Y117.926 E82.96506
G1 X43.2 Y117.398 E82.9885
G1 X43.141 Y116.589 E83.0237
G1 X43.141 Y103.392 E83.59658
G1 X43.176 Y102.785 E83.62295
G1 X43.271 Y102.243 E83.64683
G1 X43.542 Y101.423 E83.68434
G1 X43.865 Y100.773 E83.71586
G1 X44.151 Y100.348 E83.73806
G1 X44.482 Y99.957 E83.76031
G1 X44.886 Y99.579 E83.78436
G1 X45.37 Y99.225 E83.81037
G1 X45.754 Y99.011 E83.82942
G1 X45.972 Y99.404 F18000
G1 F3000
G1 X46.1 Y99.332 E83.83578
G1 X46.352 Y99.225 E83.84767
G1 X46.89 Y99.045 E83.87227
G1 X47.356 Y98.947 E83.89296
G1 X48.132 Y98.889 E83.92675
G1 X171.899 Y98.89 E89.29927
G1 X172.46 Y98.922 E89.32367
G1 X172.905 Y98.997 E89.34326
G1 X173.699 Y99.256 E89.37949
G1 X174.307 Y99.558 E89.409
G1 X174.705 Y99.829 E89.42988
G1 X175.085 Y100.159 E89.45175
G1 X175.398 Y100.5 E89.4718
G1 X175.67 Y100.872 E89.49183
G1 X175.933 Y101.332 E89.51482
G1 X176.086 Y101.679 E89.53132
G1 X176.254 Y102.184 E89.55439
G1 X176.353 Y102.656 E89.57535
G1 X176.41 Y103.424 E89.60875
G1 X176.411 Y116.59 E90.18029
G1 X176.377 Y117.168 E90.2054
G1 X176.291 Y117.653 E90.22682
G1 X176.046 Y118.396 E90.26078
G1 X175.742 Y119.009 E90.29045
G1 X175.486 Y119.386 E90.31023
G1 X175.197 Y119.727 E90.32964
G1 X174.833 Y120.07 E90.35136
G1 X174.394 Y120.392 E90.37498
G1 X173.9 Y120.668 E90.39956
G1 X173.648 Y120.775 E90.41144
G1 X173.11 Y120.955 E90.43604
G1 X172.644 Y121.053 E90.45673
G1 X171.868 Y121.111 E90.49053
G1 X48.07 Y121.11 E95.86438
G1 X47.54 Y121.078 E95.88742
G1 X47.095 Y121.003 E95.90704
G1 X46.301 Y120.744 E95.94327
G1 X45.691 Y120.441 E95.97283
G1 X45.314 Y120.186 E95.99261
G1 X44.977 Y119.901 E96.01176
G1 X44.574 Y119.465 E96.03752
G1 X44.3 Y119.083 E96.05794
G1 X44.07 Y118.674 E96.0783
G1 X43.889 Y118.257 E96.09804
G1 X43.746 Y117.818 E96.11808
G1 X43.647 Y117.344 E96.1391
G1 X43.589 Y116.568 E96.1729
G1 X43.589 Y103.408 E96.74412
G1 X43.621 Y102.845 E96.76863
G1 X43.705 Y102.363 E96.78987
G1 X43.955 Y101.603 E96.82458
G1 X44.258 Y100.991 E96.85422
G1 X44.514 Y100.614 E96.87401
G1 X44.803 Y100.273 E96.89341
G1 X45.167 Y99.93 E96.91513
G1 X45.606 Y99.608 E96.93875
G1 X45.938 Y99.423 E96.95523
G1 X46.156 Y99.816 F18000
G1 F3000
G1 X46.305 Y99.733 E96.96264
G1 X46.517 Y99.642 E96.97265
G1 X47 Y99.481 E96.99474
G1 X47.428 Y99.392 E97.01374
G1 X48.154 Y99.338 E97.04534
G1 X171.882 Y99.338 E102.4162
G1 X172.402 Y99.368 E102.43881
G1 X172.788 Y99.432 E102.45578
G1 X173.519 Y99.669 E102.48914
G1 X174.088 Y99.951 E102.51671
G1 X174.437 Y100.19 E102.53506
G1 X174.777 Y100.487 E102.55466
G1 X175.045 Y100.779 E102.57189
G1 X175.289 Y101.11 E102.58973
G1 X175.529 Y101.528 E102.61063
G1 X175.665 Y101.835 E102.62522
G1 X175.818 Y102.293 E102.6462
G1 X175.906 Y102.711 E102.66471
G1 X175.962 Y103.446 E102.6967
G1 X175.962 Y116.573 E103.26655
G1 X175.931 Y117.107 E103.28978
G1 X175.857 Y117.534 E103.30858
G1 X175.633 Y118.216 E103.33975
G1 X175.348 Y118.79 E103.36753
G1 X175.133 Y119.109 E103.38425
G1 X174.876 Y119.412 E103.40149
G1 X174.551 Y119.719 E103.42089
G1 X174.144 Y120.018 E103.44283
G1 X173.695 Y120.267 E103.46512
G1 X173.483 Y120.358 E103.47512
G1 X173 Y120.519 E103.49722
G1 X172.572 Y120.608 E103.51622
G1 X171.846 Y120.662 E103.54782
G1 X48.087 Y120.661 E108.91999
G1 X47.599 Y120.633 E108.94125
G1 X47.212 Y120.568 E108.95825
G1 X46.481 Y120.331 E108.99162
G1 X45.926 Y120.057 E109.01849
G1 X45.58 Y119.824 E109.03661
G1 X45.283 Y119.571 E109.05355
G1 X44.928 Y119.187 E109.07621
G1 X44.675 Y118.835 E109.09503
G1 X44.469 Y118.468 E109.1133
G1 X44.307 Y118.092 E109.13107
G1 X44.179 Y117.695 E109.14918
G1 X44.092 Y117.273 E109.16792
G1 X44.038 Y116.546 E109.19955
G1 X44.038 Y103.425 E109.7691
G1 X44.067 Y102.904 E109.79177
G1 X44.14 Y102.481 E109.81038
G1 X44.368 Y101.783 E109.84227
G1 X44.652 Y101.21 E109.87001
G1 X44.867 Y100.891 E109.88672
G1 X45.124 Y100.588 E109.90396
G1 X45.449 Y100.281 E109.92336
G1 X45.856 Y99.982 E109.9453
G1 X46.121 Y99.835 E109.95844
G1 X46.363 Y100.239 F18000
G1 F3000
G1 X46.518 Y100.146 E109.96629
G1 X47.041 Y99.95 E109.99053
G1 X47.75 Y99.82 E110.02181
G1 X172.249 Y99.817 E115.42611
G1 X172.462 Y99.835 E115.43539
G1 X173.026 Y99.968 E115.46055
G1 X173.543 Y100.177 E115.48479
G1 X174.072 Y100.5 E115.51168
G1 X174.466 Y100.835 E115.53411
G1 X174.79 Y101.214 E115.55577
G1 X175.127 Y101.767 E115.58387
